src/components/atoms/Icon/icons/loyalty-regular.svg

<svg width="24" height="24" xmlns="http://www.w3.org/2000/svg" xmlns:xlink="http://www.w3.org/1999/xlink"><defs><path d="M21.41 11.58l-9-9C12.05 2.22 11.55 2 11 2H4c-1.1 0-2 .9-2 2v7c0 .55.22 1.05.59 1.42l9 9c.36.36.86.58 1.41.58.55 0 1.05-.22 1.41-.59l7-7c.37-.36.59-.86.59-1.41 0-.55-.23-1.06-.59-1.42zM5.5 7C4.67 7 4 6.33 4 5.5S4.67 4 5.5 4 7 4.67 7 5.5 6.33 7 5.5 7zm11.77 8.27L13 19.54l-4.27-4.27A2.5 2.5 0 0 1 10.5 11c.69 0 1.32.28 1.77.74l.73.72.73-.73a2.5 2.5 0 0 1 3.54 3.54z" id="loyalty-regular-a"/><rect id="loyalty-regular-c" x="0" y="0" width="24" height="24" rx="4"/></defs><g fill="none" fill-rule="evenodd"><mask id="loyalty-regular-b" fill="#fff"><use xlink:href="#loyalty-regular-a"/></mask><use fill="#2F7EDC" fill-rule="nonzero" xlink:href="#loyalty-regular-a"/><g mask="url(#loyalty-regular-b)"><use fill="currentcolor" xlink:href="#loyalty-regular-c"/></g></g></svg>

<?xml version="1.0" encoding="UTF-8"?>
<svg width="24px" height="24px" viewBox="0 0 24 24" version="1.1" xmlns="http://www.w3.org/2000/svg" xmlns:xlink="http://www.w3.org/1999/xlink">
    <!-- Generator: Sketch 52.3 (67297) - http://www.bohemiancoding.com/sketch -->
    <title>icon/loyalty</title>
    <desc>Created with Sketch.</desc>
    <defs>
        <path d="M21.41,11.58 L12.41,2.58 C12.05,2.22 11.55,2 11,2 L4,2 C2.9,2 2,2.9 2,4 L2,11 C2,11.55 2.22,12.05 2.59,12.42 L11.59,21.42 C11.95,21.78 12.45,22 13,22 C13.55,22 14.05,21.78 14.41,21.41 L21.41,14.41 C21.78,14.05 22,13.55 22,13 C22,12.45 21.77,11.94 21.41,11.58 Z M5.5,7 C4.67,7 4,6.33 4,5.5 C4,4.67 4.67,4 5.5,4 C6.33,4 7,4.67 7,5.5 C7,6.33 6.33,7 5.5,7 Z M17.27,15.27 L13,19.54 L8.73,15.27 C8.28,14.81 8,14.19 8,13.5 C8,12.12 9.12,11 10.5,11 C11.19,11 11.82,11.28 12.27,11.74 L13,12.46 L13.73,11.73 C14.18,11.28 14.81,11 15.5,11 C16.88,11 18,12.12 18,13.5 C18,14.19 17.72,14.82 17.27,15.27 Z" id="loyalty-regular-path-1"></path>
        <rect id="loyalty-regular-path-3" x="0" y="0" width="24" height="24" rx="4"></rect>
    </defs>
    <g id="icon/loyalty-regular" stroke="none" stroke-width="1" fill="none" fill-rule="evenodd">
        <g id="loyalty-regular">
            <mask id="loyalty-regular-mask-2" fill="white">
                <use xlink:href="#loyalty-regular-path-1"></use>
            </mask>
            <use id="loyalty-regular-Shape" fill="#2F7EDC" fill-rule="nonzero" xlink:href="#loyalty-regular-path-1"></use>
            <g id="loyalty-regular-Color/fill/slate" mask="url(#loyalty-regular-mask-2)">
                <mask id="mask-4" fill="white">
                    <use xlink:href="#loyalty-regular-path-3"></use>
                </mask>
                <use id="loyalty-regular-Color" fill="currentcolor" fill-rule="evenodd" xlink:href="#loyalty-regular-path-3"></use>
            </g>
        </g>
    </g>
</svg>
